drawings/svg/kiciadzieciol2.svg

<?xml version="1.0" encoding="UTF-8" standalone="no"?>
<!-- Created with Inkscape (http://www.inkscape.org/) -->

<svg
   xmlns:dc="http://purl.org/dc/elements/1.1/"
   xmlns:cc="http://creativecommons.org/ns#"
   xmlns:rdf="http://www.w3.org/1999/02/22-rdf-syntax-ns#"
   xmlns:svg="http://www.w3.org/2000/svg"
   xmlns="http://www.w3.org/2000/svg"
   xmlns:sodipodi="http://sodipodi.sourceforge.net/DTD/sodipodi-0.dtd"
   xmlns:inkscape="http://www.inkscape.org/namespaces/inkscape"
   width="1052.3622"
   height="744.09448"
   id="svg3172"
   version="1.1"
   inkscape:version="0.48.3.1 r9886"
   sodipodi:docname="kiciadzieciol.svg"
   inkscape:export-filename="/home/dos/kiciadzieciol.png"
   inkscape:export-xdpi="225"
   inkscape:export-ydpi="225">
  <sodipodi:namedview
     id="base"
     pagecolor="#ffffff"
     bordercolor="#666666"
     borderopacity="1.0"
     inkscape:pageopacity="0.0"
     inkscape:pageshadow="2"
     inkscape:zoom="0.76629012"
     inkscape:cx="652.83528"
     inkscape:cy="325.87558"
     inkscape:document-units="px"
     inkscape:current-layer="svg3172"
     showgrid="false"
     inkscape:window-width="1440"
     inkscape:window-height="832"
     inkscape:window-x="1366"
     inkscape:window-y="-3"
     inkscape:window-maximized="1"
     showguides="true"
     inkscape:guide-bbox="true" />
  <defs
     id="defs3174" />
  <metadata
     id="metadata3177">
    <rdf:RDF>
      <cc:Work
         rdf:about="">
        <dc:format>image/svg+xml</dc:format>
        <dc:type
           rdf:resource="http://purl.org/dc/dcmitype/StillImage" />
        <dc:title />
      </cc:Work>
    </rdf:RDF>
  </metadata>
  <path
     id="path5816"
     style="stroke-linejoin:miter;opacity:1;stroke-opacity:1;stroke:#000000;stroke-linecap:butt;stroke-dasharray:none;stroke-miterlimit:4;stroke-width:5px;fill:none"
     d="m 594.52026,653.38365 c 0.6802,8.94652 -14.99047,9.40383 -7.6305,38.85598 0.49831,1.994 18.25799,-0.7128 18.97968,1.6616 m -82.10959,-65.87821 c -9.72183,50.20903 -27.35402,53.50765 -53.78385,59.16218 M 360.14445,446.79903 c 0,0 38.39232,54.84615 38.39232,54.84615 0,0 -1.82822,-1.8282 -1.82822,-1.8282 0,0 0,0 0,0 m -47.65994,-48.03973 c 0,0 36.5641,84.09742 36.5641,84.09742 0,0 0,0 0,0 0,0 0,0 0,0 m -49.10832,-79.59022 c 0,0 20.11026,74.95642 20.11026,74.95642 M 294.22251,393.68135 c -1.04334,11.50976 -11.15552,11.42653 -14.62948,9.17335 m -1.56054,46.09 c 12.10925,3.83818 22.80265,6.06416 36.83149,-3.14443 M 451.5704,344.32883 c -2.61734,17.93428 -3.35462,22.04903 3.50715,37.50244 2.90783,16.06675 -2.26486,23.80218 -12.16118,32.82216 m -67.34749,13.27778 c -5.63296,-28.66268 -21.74655,-21.47823 -36.42868,-19.18987 0,0 0,0 0,0 0,0 0,0 0,0 m 271.92285,304.50199 c -14.39266,-18.1863 -0.68248,-54.77407 35.65799,-44.40845 54.87066,5.37976 71.11446,12.96348 83.1242,1.75469 5.25025,-4.90009 -97.70049,-137.30528 -19.67877,-93.37143 M 497.64481,565.58501 c 29.3981,62.91098 -27.28378,130.99102 -52.80084,139.59912 m 60.0189,-81.58944 c 79.79718,1.97193 90.57735,38.01968 124.32116,43.68314 m -18.04393,45.8472 c 26.00872,4.179 60.89008,-4.7182 64.86353,-3.4473 4.24191,1.3569 138.79897,22.4297 131.00951,-12.6305 -0.53208,-2.3948 -16.57716,-78.09321 -18.2017,-81.12971 60.83231,-20.28374 95.84237,-65.32815 108.59936,-129.39939 7.60755,-52.39556 -106.91072,-102.53408 -100.84078,-87.84204 10.78991,26.11651 82.60846,48.98922 73.90486,88.16198 -12.9952,58.48822 -87.58443,110.55239 -95.26668,97.46473 -60.99212,-103.90759 -204.57583,-44.29004 -299.00768,-169.22915 1.9247,-10.7119 10.87703,-19.66688 -1.86934,-34.04654 -12.26947,-12.62487 -16.18856,-25.14105 -21.53816,-37.49268 -28.97826,6.11081 -27.26397,33.49975 -40.40804,50.58788 -82.20518,-35.65846 -59.84441,-3.28527 -128.69127,-0.18428 -16.8548,32.04406 -6.26394,47.72061 -5.37606,61.62731 9.64664,25.82799 51.48632,36.75063 89.8678,49.27444 5.10534,1.66586 86.26405,24.00295 74.96822,80.03487 -1.06222,5.26913 -3.30869,40.77449 -27.54221,70.57977 -10.37777,12.76384 -63.72456,16.8397 -93.96684,26.87544 -3.39796,1.12756 -24.70536,-2.25483 -27.87407,-1.14543 -12.3832,4.33494 -18.7104,24.1307 -14.59921,30.7306 3.74669,6.0147 8.15088,5.4264 18.86309,3.3345 30.1082,-5.8795 78.46321,-9.9109 147.88821,-10.9155 M 435.5877,352.9551 c -4.9333,-9.89238 -1.89054,-18.21038 -16.87719,-29.89517 -3.61899,26.15388 -27.59871,23.67933 -31.72516,61.00884 M 435.5877,352.9551 c 0,0 0,0 0,0 m -10.16884,289.9331 c -49.93906,7.55315 -114.44224,20.5955 -122.72899,39.18677 m 28.43672,-481.14395 c 2.87718,-12.90713 23.59501,-36.82146 56.08697,-36.69419 28.94653,2.23868 42.55187,13.39553 49.69283,31.21295 0,0 -49.91881,2.74072 -49.91881,2.74072 0,0 -55.86099,2.74052 -55.86099,2.74052 M 215.4776,199.7827 c 2.87718,-12.90712 17.65292,-30.87936 50.14491,-30.7521 28.94651,2.23868 39.58084,13.39554 46.72178,31.21297 0,0 -46.94778,-0.23022 -46.94778,-0.23022 0,0 -49.91891,-0.23065 -49.91891,-0.23065 M 359.97086,655.78706 C 352.36051,614.84799 344.60467,546.2091 336.33584,507.6632 m -73.7402,160.34965 c 5.15211,17.46181 10.92431,31.77098 16.73478,49.74448 m -15.81367,-50.71585 c 7.6e-4,1.45211 -0.65253,-0.68178 -0.65208,0.77037 1.52923,20.49598 -1.58618,32.49968 0.45381,54.04768 m -1.03414,-54.73339 c -0.32883,1.25235 0.71721,0.14932 0.38836,1.40164 -5.95512,15.95506 -10.51585,32.36625 -17.14958,48.65165 m 16.46469,-36.56118 c 0.44772,-3.63031 -0.68626,-1.92503 -0.23846,-5.55531 7.43038,-42.76783 14.56295,-129.81861 22.69016,-172.37653 m -26.35645,-262.3095 c 0.0792,13.00475 6.99598,23.50543 15.44905,23.45395 8.4531,-0.0515 15.24146,-10.63563 15.16225,-23.64038 -0.0792,-13.00472 -6.99597,-23.50543 -15.44907,-23.45395 -8.45307,0.0515 -15.24143,10.63566 -15.16223,23.64038 0,0 0,0 0,0 m 120.81538,-4.52774 c 0.0792,13.00474 6.99598,23.50543 15.44905,23.45394 8.4531,-0.0515 15.24146,-10.63563 15.16225,-23.64038 -0.0792,-13.00472 -6.99597,-23.50543 -15.44907,-23.45394 -8.45307,0.0515 -15.24143,10.63565 -15.16223,23.64038 0,0 0,0 0,0 m -56.3379,2.11475 c -6.52461,31.20431 -37.59641,51.10946 -69.40083,44.45937 -31.80439,-6.65008 -52.29772,-37.33715 -45.77311,-68.54147 6.52461,-31.20431 37.59643,-51.10946 69.40083,-44.45938 31.80442,6.65009 52.29772,37.33716 45.77311,68.54148 0,0 0,0 0,0 m 5.30161,1.26974 c 10.01023,30.26673 43.133,46.53184 73.98181,36.3291 30.84878,-10.20273 47.74179,-43.00973 37.73156,-73.27646 -10.01022,-30.26674 -43.13302,-46.53184 -73.9818,-36.32911 -30.84881,10.20274 -47.74179,43.00973 -37.73157,73.27647 0,0 0,0 0,0 m -51.36623,45.38506 c 6.26647,21.54146 78.05685,67.90365 100.42691,86.37794 10.39912,-26.89091 -6.23122,-69.08102 -8.43259,-91.86936 m 22.24308,1.0978 c 2.48229,3.41213 8.73511,34.88759 9.62682,73.50749 m -48.91902,144.48978 c -9.13493,5.81774 -19.86147,9.72988 -32.42454,11.17538 -77.80631,8.95236 -114.16165,-114.67993 -86.1615,-232.60224 M 502.9589,443.14577 c 4.0842,0.0268 7.6101,-2.28156 10.60812,-7.84515 C 540.02038,386.20972 426.1391,301.88604 403.52387,273.06094 M 271.4154,500.1811 C 205.00319,489.18804 159.58738,370.7845 218.95513,263.1619 m 52.46027,237.0192 c 0,0 0,0 0,0 m 2.71333,-330.8351 c -16.91008,-26.91396 -37.2663,-52.10485 -66.99085,-72.61157 0,0 94.18247,27.72522 94.18247,27.72522 0,0 -9.30026,-101.76427 -9.30026,-101.76427 0,0 45.19648,91.91847 45.19648,91.91847 0,0 86.8797,-40.51162 86.8797,-40.51162 -27.60197,28.4369 -44.48121,58.98686 -56.72554,90.44925" />
</svg>

<!-- Created with Inkscape (http://www.inkscape.org/) --><svg xmlns:dc="http://purl.org/dc/elements/1.1/" xmlns:cc="http://creativecommons.org/ns#" xmlns:rdf="http://www.w3.org/1999/02/22-rdf-syntax-ns#" xmlns:svg="http://www.w3.org/2000/svg" xmlns="http://www.w3.org/2000/svg" xmlns:sodipodi="http://sodipodi.sourceforge.net/DTD/sodipodi-0.dtd" xmlns:inkscape="http://www.inkscape.org/namespaces/inkscape" width="1052.3622" height="744.09448" id="svg3172" version="1.1" inkscape:version="0.48.3.1 r9886" sodipodi:docname="kiciadzieciol.svg" inkscape:export-filename="/home/dos/kiciadzieciol.png" inkscape:export-xdpi="225" inkscape:export-ydpi="225">
  <sodipodi:namedview id="base" pagecolor="#ffffff" bordercolor="#666666" borderopacity="1.0" inkscape:pageopacity="0.0" inkscape:pageshadow="2" inkscape:zoom="0.76629012" inkscape:cx="652.83528" inkscape:cy="325.87558" inkscape:document-units="px" inkscape:current-layer="svg3172" showgrid="false" inkscape:window-width="1440" inkscape:window-height="832" inkscape:window-x="1366" inkscape:window-y="-3" inkscape:window-maximized="1" showguides="true" inkscape:guide-bbox="true"/>
  <defs id="defs3174"/>
  <metadata id="metadata3177">
    <rdf:RDF>
      <cc:Work rdf:about="">
        <dc:format>image/svg+xml</dc:format>
        <dc:type rdf:resource="http://purl.org/dc/dcmitype/StillImage"/>
        <dc:title/>
      </cc:Work>
    </rdf:RDF>
  </metadata>
  <path id="path5816" style="stroke-linejoin:miter;opacity:1;stroke-opacity:1;stroke:#000000;stroke-linecap:butt;stroke-dasharray:none;stroke-miterlimit:4;stroke-width:5px;fill:none" d="M594.52026 653.38365C595.20046 662.33017 579.52979 662.78748 586.88976 692.23963C587.38807 694.23363 605.14775 691.52683 605.86944 693.90123M523.75985 628.02302C514.03802 678.23205 496.40583 681.53067 469.976 687.1852M360.14445 446.79903C360.14445 446.79903 398.53677 501.64518 398.53677 501.64518C398.53677 501.64518 396.70855 499.81698 396.70855 499.81698C396.70855 499.81698 396.70855 499.81698 396.70855 499.81698M349.04861 451.77725C349.04861 451.77725 385.61271 535.87467 385.61271 535.87467C385.61271 535.87467 385.61271 535.87467 385.61271 535.87467C385.61271 535.87467 385.61271 535.87467 385.61271 535.87467M336.50439 456.28445C336.50439 456.28445 356.61465 531.24087 356.61465 531.24087M294.22251 393.68135C293.17917 405.19111 283.06699 405.10788 279.59303 402.8547M278.03249 448.9447C290.14174 452.78288 300.83514 455.00886 314.86398 445.80027M451.5704 344.32883C448.95306 362.26311 448.21578 366.37786 455.07755 381.83127C457.98538 397.89802 452.81269 405.63345 442.91637 414.65343M375.56888 427.93121C369.93592 399.26853 353.82233 406.45298 339.1402 408.74134C339.1402 408.74134 339.1402 408.74134 339.1402 408.74134C339.1402 408.74134 339.1402 408.74134 339.1402 408.74134M611.06305 713.24333C596.67039 695.05703 610.38057 658.46926 646.72104 668.83488C701.5917 674.21464 717.8355 681.79836 729.84524 670.58957C735.09549 665.68948 632.14475 533.28429 710.16647 577.21814M497.64481 565.58501C527.04291 628.49599 470.36103 696.57603 444.84397 705.18413M504.86287 623.59469C584.66005 625.56662 595.44022 661.61437 629.18403 667.27783M611.1401 713.12503C637.14882 717.30403 672.03018 708.40683 676.00363 709.67773C680.24554 711.03463 814.8026 732.10743 807.01314 697.04723C806.48106 694.65243 790.43598 618.95402 788.81144 615.91752C849.64375 595.63378 884.65381 550.58937 897.4108 486.51813C905.01835 434.12257 790.50008 383.98405 796.57002 398.67609C807.35993 424.7926 879.17848 447.66531 870.47488 486.83807C857.47968 545.32629 782.89045 597.39046 775.2082 584.3028C714.21608 480.39521 570.63237 540.01276 476.20052 415.07365C478.12522 404.36175 487.07755 395.40677 474.33118 381.02711C462.06171 368.40224 458.14262 355.88606 452.79302 343.53443C423.81476 349.64524 425.52905 377.03418 412.38498 394.12231C330.1798 358.46385 352.54057 390.83704 283.69371 393.93803C266.83891 425.98209 277.42977 441.65864 278.31765 455.56534C287.96429 481.39333 329.80397 492.31597 368.18545 504.83978C373.29079 506.50564 454.4495 528.84273 443.15367 584.87465C442.09145 590.14378 439.84498 625.64914 415.61146 655.45442C405.23369 668.21826 351.8869 672.29412 321.64462 682.32986C318.24666 683.45742 296.93926 680.07503 293.77055 681.18443C281.38735 685.51937 275.06015 705.31513 279.17134 711.91503C282.91803 717.92973 287.32222 717.34143 298.03443 715.24953C328.14263 709.37003 376.49764 705.33863 445.92264 704.33403M435.5877 352.9551C430.6544 343.06272 433.69716 334.74472 418.71051 323.05993C415.09152 349.21381 391.1118 346.73926 386.98535 384.06877M435.5877 352.9551C435.5877 352.9551 435.5877 352.9551 435.5877 352.9551M425.41886 642.8882C375.4798 650.44135 310.97662 663.4837 302.68987 682.07497M331.12659 200.93102C334.00377 188.02389 354.7216 164.10956 387.21356 164.23683C416.16009 166.47551 429.76543 177.63236 436.90639 195.44978C436.90639 195.44978 386.98758 198.1905 386.98758 198.1905C386.98758 198.1905 331.12659 200.93102 331.12659 200.93102M215.4776 199.7827C218.35478 186.87558 233.13052 168.90334 265.62251 169.0306C294.56902 171.26928 305.20335 182.42614 312.34429 200.24357C312.34429 200.24357 265.39651 200.01335 265.39651 200.01335C265.39651 200.01335 215.4776 199.7827 215.4776 199.7827M359.97086 655.78706C352.36051 614.84799 344.60467 546.2091 336.33584 507.6632M262.59564 668.01285C267.74775 685.47466 273.51995 699.78383 279.33042 717.75733M263.51675 667.04148C263.51751 668.49359 262.86422 666.3597 262.86467 667.81185C264.3939 688.30783 261.27849 700.31153 263.31848 721.85953M262.28434 667.12614C261.95551 668.37849 263.00155 667.27546 262.6727 668.52778C256.71758 684.48284 252.15685 700.89403 245.52312 717.17943M261.98781 680.61825C262.43553 676.98794 261.30155 678.69322 261.74935 675.06294C269.17973 632.29511 276.3123 545.24433 284.43951 502.68641M258.08306 240.37691C258.16226 253.38166 265.07904 263.88234 273.53211 263.83086C281.98521 263.77936 288.77357 253.19523 288.69436 240.19048C288.61516 227.18576 281.69839 216.68505 273.24529 216.73653C264.79222 216.78803 258.00386 227.37219 258.08306 240.37691C258.08306 240.37691 258.08306 240.37691 258.08306 240.37691M378.89844 235.84917C378.97764 248.85391 385.89442 259.3546 394.34749 259.30311C402.80059 259.25161 409.58895 248.66748 409.50974 235.66273C409.43054 222.65801 402.51377 212.1573 394.06067 212.20879C385.6076 212.26029 378.81924 222.84444 378.89844 235.84917C378.89844 235.84917 378.89844 235.84917 378.89844 235.84917M322.56054 237.96392C316.03593 269.16823 284.96413 289.07338 253.15971 282.42329C221.35532 275.77321 200.86199 245.08614 207.3866 213.88182C213.91121 182.67751 244.98303 162.77236 276.78743 169.42244C308.59185 176.07253 329.08515 206.7596 322.56054 237.96392C322.56054 237.96392 322.56054 237.96392 322.56054 237.96392M327.86215 239.23366C337.87238 269.50039 370.99515 285.7655 401.84396 275.56276C432.69274 265.36003 449.58575 232.55303 439.57552 202.2863C429.5653 172.01956 396.4425 155.75446 365.59372 165.95719C334.74491 176.15993 317.85193 208.96692 327.86215 239.23366C327.86215 239.23366 327.86215 239.23366 327.86215 239.23366M276.49592 284.61872C282.76239 306.16018 354.55277 352.52237 376.92283 370.99666C387.32195 344.10575 370.69161 301.91564 368.49024 279.1273M390.73332 280.2251C393.21561 283.63723 399.46843 315.11269 400.36014 353.73259M351.44112 498.22237C342.30619 504.04011 331.57965 507.95225 319.01658 509.39775C241.21027 518.35011 204.85493 394.71782 232.85508 276.79551M502.9589 443.14577C507.0431 443.17257 510.569 440.86421 513.56702 435.30062C540.02038 386.20972 426.1391 301.88604 403.52387 273.06094M271.4154 500.1811C205.00319 489.18804 159.58738 370.7845 218.95513 263.1619M271.4154 500.1811C271.4154 500.1811 271.4154 500.1811 271.4154 500.1811M274.12873 169.346C257.21865 142.43204 236.86243 117.24115 207.13788 96.73443C207.13788 96.73443 301.32035 124.45965 301.32035 124.45965C301.32035 124.45965 292.02009 22.69538 292.02009 22.69538C292.02009 22.69538 337.21657 114.61385 337.21657 114.61385C337.21657 114.61385 424.09627 74.10223 424.09627 74.10223C396.4943 102.53913 379.61506 133.08909 367.37073 164.55148" color="#00000000"/>
</svg>
